**kern
*staff1
=1-
*clefG2
*M4/4
4r
4G
4c
4c
=2
4d
4e
4f
4d
=3
4r
4d
4d
4e
=4
4c
4g
2f
=5
4g
4G
4.B
8c
=6
4d
4e
2d
=7
4d
4g
4e
4g
=8
4c
4A
2B
=9
2B
4e
8e/L
8e/J
=10
4e
4d
2c
=11
4e
8f/L
8g/J
4a
4g
=12
4c
8d/L
8e/J
4f
4e
=13
4r
4d
4G
4B
=14
4c#
4c#
2d
=15
2B
2r
=16
1r
=17
4e
8d/L
8e/J
4f
4e
=18
4d
4c
4r
4g
=19
4a
4g
4f
4d
=20
4r
4d
4a
4g
=21
4f
4d
4r
4e
=22
4d
4e
4d
4e
=23
4r
4c
4d
4e
=24
2d
4e
8g/L
8f/J
=25
4g
4e
2f#
=26
2g
4r
8G/L
8A/J
=27
4B
4c
2d
=28
2e
4e
4f
=29
2g
4g
4a
=30
8f/L
8e/J
8f/L
8g/J
4f#
4g
=31
1r
=32
4f#
4g
2a
=33
8g/L
8fn/J
8e/L
8d/J
4c
4d
=34
4a
4.g
16f#/LL
16e/JJ
4f#
=35
2g
4r
8fn/L
8g/J
=36
4a
4g
4f
[4e
=37
4e]
4d
4r
8e/L
8f/J
=38
2g
4r
[4e
=39
8e/L]
8d/J
8c/L
8B/J
4c
4d
=40
2c#
2d
=41
2r
4g
4f
=42
2e
4f
4e
=43
2d
4g
4f
=44
2e
4a
4g
=45
4f
4e
2d
=46
4r
2e
4d
=47
4.c
8B
4A
4f
=48
4d
4f
2e
=49
2f
4r
4f
=50
4e
4d
4e
4d
=51
4c#
4e
4e
[4a
=52
8a/L]
8g/J
4f
2e
=53
2f
4d
[4a
=54
8a/L]
8g/J
4f
4d
4a
=55
4r
4.a
8g
4f
=56
4d
4a
4r
[4f
=57
8f/L]
8e/J
4d
4a
4a
=58
4r
4.f
8g
4a
=59
4f
4d
4r
[4d
=60
8d/L]
8c/J
4B
2A
=61
[1B
=62
1B]
==
*-
